X:1
T: Before I was married
C:
R:Jig
Q:180
K:Bm
M:6/8
L:1/16
AG|F2G2A2 A2f2e2|d2B2B2 B4AG|F2G2A2 A2d2e2|f2d2d2 d4AG|F2G2A2 A2f2e2|d2B2B2 B4AG|F2G2A2 A2a2g2|f2d2d2 d4AG|
F2G2A2 A2f2e2|d2B2B2 B4AG|F2G2A2 A2d2e2|f2d2d2 d4AG|F2G2A2 A2f2e2|d2B2B2 B4AG|F2G2A2 A2a2g2|f2d2d2 d4de|
f2e2f2 a2f2e2|d2B2c2 d4de|f2g2f2 e2d2e2|f2d2B2 B4de|f2e2f2 a2f2e2|d2B2c2 d4de|f2a2g2 e2d2e2|f2d2B2 B4de|
f2e2f2 a2f2e2|d2B2c2 d4de|f2g2f2 e2d2e2|f2d2B2 B4de|f2e2f2 a2f2e2|d2B2c2 d4de|f2a2g2 e2d2e2|f2d2B2 B4||
